Newaita-dark/apps/24/keepassxc.svg

<svg height="24pt" viewBox="0 0 24 24" width="24pt" xmlns="http://www.w3.org/2000/svg" xmlns:xlink="http://www.w3.org/1999/xlink"><linearGradient id="a"><stop offset="0" stop-opacity=".313725"/><stop offset=".222222" stop-opacity=".27451"/><stop offset="1" stop-opacity="0"/></linearGradient><radialGradient id="b" cx="450.90894" cy="189.57936" gradientTransform="matrix(.00000013 -.0585994 -.105479 -.00000008 33.392364 47.696499)" gradientUnits="userSpaceOnUse" r="21.166656" xlink:href="#a"/><radialGradient id="c" cx="450.90894" cy="189.57936" gradientTransform="matrix(-.00000013 .0585994 .105479 .00000008 -9.57759 -5.645611)" gradientUnits="userSpaceOnUse" r="21.166656" xlink:href="#a"/><radialGradient id="d" cx="450.90894" cy="189.57936" gradientTransform="matrix(-.00000013 -.0585994 .105479 -.00000008 -9.57759 47.696499)" gradientUnits="userSpaceOnUse" r="21.166656" xlink:href="#a"/><radialGradient id="e" cx="450.90894" cy="189.57936" gradientTransform="matrix(.00000013 .0585994 -.105479 .00000008 33.392363 -5.645611)" gradientUnits="userSpaceOnUse" r="21.166656" xlink:href="#a"/><linearGradient id="f" gradientTransform="matrix(.01002 0 0 .0468795 9.349039 10.079088)" gradientUnits="userSpaceOnUse" x1="255.32306" x2="255.32304" y1="233.5" y2="254.66666"><stop offset="0" stop-opacity=".27451"/><stop offset="1" stop-opacity="0"/></linearGradient><linearGradient id="g" gradientUnits="userSpaceOnUse" x1="254" x2="254" y1="-168.66666" y2="233.5"><stop offset="0" stop-color="#81c784"/><stop offset="1" stop-color="#66bb6a"/></linearGradient><linearGradient id="h" gradientUnits="userSpaceOnUse" x1="11.90736" x2="11.90736" y1="21.0253985937" y2="2.17207760142"><stop offset="0" stop-color="#bdbdbd"/><stop offset="1" stop-color="#e0e0e0"/></linearGradient><path d="m13.644531 21.027344h1.984375v-.996094h-1.984375zm0 0" fill="url(#b)"/><path d="m10.171875 21.027344h-1.984375v.992187h1.984375zm0 0" fill="url(#c)"/><path d="m10.171875 21.027344h-1.984375v-.996094h1.984375zm0 0" fill="url(#d)"/><path d="m13.644531 21.027344h1.984375v.992187h-1.984375zm0 0" fill="url(#e)"/><path d="m10.171875 20.777344h3.472656v1.242187h-3.472656zm0 0" fill="url(#f)"/><path d="m253.975747-168.671091c111.072726 0 201.147458 89.991406 201.147458 201.064133 0 111.072726-90.074732 201.147458-201.147458 201.147458-110.989402 0-201.064133-90.074732-201.064133-201.147458 0-111.072727 90.074731-201.064133 201.064133-201.064133zm0 0" fill="url(#g)" stroke="#333" stroke-linecap="round" stroke-width="3" transform="matrix(.0468795 0 0 .0468795 0 10.079087)"/><path d="m11.90625 21.027344c-5.222656 0-9.425781-4.207032-9.425781-9.429688 0-.03125 0-.058594 0-.089844.050781 5.179688 4.234375 9.332032 9.425781 9.332032s9.378906-4.152344 9.425781-9.332032c0 .03125.003907.058594.003907.089844 0 5.222656-4.207032 9.429688-9.429688 9.429688zm0 0" fill-opacity=".196078"/><path d="m11.90625 2.171875c-5.222656 0-9.425781 4.203125-9.425781 9.425781v.09375c.050781-5.179687 4.234375-9.335937 9.425781-9.335937s9.378906 4.15625 9.425781 9.335937c0-.03125.003907-.0625.003907-.09375 0-5.222656-4.207032-9.425781-9.429688-9.425781zm0 0" fill="#fff" fill-opacity=".392157"/><path d="m11.90625 2.101562c-5.257812 0-9.496094 4.238282-9.496094 9.496094 0 5.261719 4.238282 9.5 9.496094 9.5 5.261719 0 9.5-4.238281 9.5-9.5 0-5.257812-4.238281-9.496094-9.5-9.496094zm0 .140626c5.1875 0 9.359375 4.171874 9.359375 9.355468 0 5.1875-4.171875 9.359375-9.359375 9.359375-5.183594 0-9.355469-4.171875-9.355469-9.359375 0-5.183594 4.171875-9.355468 9.355469-9.355468zm0 0" fill="#212121"/><path d="m11.890625 5.644531c-1.363281 0-2.464844.886719-2.464844 1.984375v2.976563h-1.003906c-.273437 0-.496094.199219-.496094.449219v.097656c0 .246094.222657.445312.496094.445312h6.945313c.277343 0 .496093-.199218.496093-.445312v-.097656c0-.25-.21875-.449219-.496093-.449219h-.980469v-2.976563c0-1.097656-1.097657-1.984375-2.464844-1.984375zm.015625.992188c.824219 0 1.488281.664062 1.488281 1.488281v2.480469h-2.976562v-2.480469c0-.824219.664062-1.488281 1.488281-1.488281zm-3.484375 5.457031c-.273437 0-.496094.222656-.496094.496094 0 .277344.222657.496094.496094.496094h2.492187v-.992188zm4.476563 0v.992188h2.46875c.277343 0 .496093-.21875.496093-.496094 0-.273438-.21875-.496094-.496093-.496094zm-4.476563 1.488281c-.273437 0-.496094.222657-.496094.496094 0 .277344.222657.496094.496094.496094h2.492187v-.992188zm4.476563 0v.992188h2.46875c.277343 0 .496093-.21875.496093-.496094 0-.273437-.21875-.496094-.496093-.496094zm-4.476563 1.488281c-.273437 0-.496094.199219-.496094.449219v.097657c0 .246093.222657.445312.496094.445312h6.945313c.277343 0 .496093-.199219.496093-.445312v-.097657c0-.25-.21875-.449219-.496093-.449219zm0 0" fill="url(#h)"/><path d="m11.890625 5.644531c-1.363281 0-2.464844.886719-2.464844 1.984375v.371094c0-1.097656 1.101563-1.984375 2.464844-1.984375h.03125c1.367187 0 2.464844.886719 2.464844 1.984375v-.371094c0-1.097656-1.097657-1.984375-2.464844-1.984375zm-3.46875 4.960938c-.273437 0-.496094.199219-.496094.449219v.097656c0 .046875.007813.09375.023438.136718.066406-.179687.25-.308593.472656-.308593h1.003906v-.375zm1.996094 0v.375h2.976562v-.375zm3.96875 0v.375h.980469c.222656 0 .410156.128906.472656.308593.015625-.042968.023437-.089843.023437-.136718v-.097656c0-.25-.21875-.449219-.496093-.449219zm-5.964844 1.488281c-.273437 0-.496094.222656-.496094.496094 0 .066406.015625.128906.035157.1875.074218-.183594.253906-.308594.460937-.308594h2.492187v-.375zm4.476563 0v.375h2.46875c.210937 0 .386718.125.460937.308594.023437-.058594.035156-.121094.035156-.1875 0-.273438-.21875-.496094-.496093-.496094zm-4.476563 1.488281c-.273437 0-.496094.222657-.496094.496094 0 .066406.015625.128906.035157.1875.074218-.183594.253906-.308594.460937-.308594h2.492187v-.375zm4.476563 0v.375h2.46875c.210937 0 .386718.125.460937.308594.023437-.058594.035156-.121094.035156-.1875 0-.273437-.21875-.496094-.496093-.496094zm-4.476563 1.488281c-.273437 0-.496094.199219-.496094.449219v.097657c0 .046874.007813.09375.023438.136718.066406-.179687.25-.308594.472656-.308594h6.945313c.222656 0 .410156.128907.472656.308594.015625-.042968.023437-.089844.023437-.136718v-.097657c0-.25-.21875-.449219-.496093-.449219zm0 0" fill="#fff" fill-opacity=".392157"/><path d="m11.90625 6.636719c-.824219 0-1.488281.664062-1.488281 1.488281v.496094c0-.824219.664062-1.488282 1.488281-1.488282s1.488281.664063 1.488281 1.488282v-.496094c0-.824219-.664062-1.488281-1.488281-1.488281zm-3.929688 4.714843c-.03125.058594-.050781.125-.050781.199219v.097657c0 .246093.222657.445312.496094.445312h6.945313c.277343 0 .496093-.199219.496093-.445312v-.097657c0-.074219-.015625-.140625-.050781-.199219-.078125.144532-.25.246094-.445312.246094h-6.945313c-.195313 0-.363281-.101562-.445313-.246094zm.015626 1.488282c-.042969.070312-.066407.15625-.066407.246094 0 .277343.222657.496093.496094.496093h2.492187v-.496093h-2.492187c-.183594 0-.34375-.097657-.429687-.246094zm7.808593 0c-.085937.148437-.246093.246094-.433593.246094h-2.46875v.496093h2.46875c.277343 0 .496093-.21875.496093-.496093 0-.089844-.023437-.175782-.0625-.246094zm-7.808593 1.488281c-.042969.074219-.066407.15625-.066407.246094 0 .277343.222657.496093.496094.496093h2.492187v-.496093h-2.492187c-.183594 0-.34375-.097657-.429687-.246094zm7.808593 0c-.085937.148437-.246093.246094-.433593.246094h-2.46875v.496093h2.46875c.277343 0 .496093-.21875.496093-.496093 0-.089844-.023437-.171875-.0625-.246094zm-7.824219 1.488281c-.03125.058594-.050781.128906-.050781.199219v.097656c0 .246094.222657.445313.496094.445313h6.945313c.277343 0 .496093-.199219.496093-.445313v-.097656c0-.070313-.015625-.140625-.050781-.199219-.078125.148438-.25.246094-.445312.246094h-6.945313c-.195313 0-.363281-.097656-.445313-.246094zm0 0" fill-opacity=".235294"/><path d="m958.648623 455.074659c-109.910765 0-198.721183 71.489237-198.721183 159.984724v239.977086h-80.937154c-22.045139 0-39.996181 16.061459-39.996181 36.217014v7.873264c0 19.840626 17.951042 35.902084 39.996181 35.902084h559.946535c22.36007 0 39.996181-16.061458 39.996181-35.902084v-7.873264c0-20.155555-17.636111-36.217014-39.996181-36.217014h-79.04757v-239.977086c0-88.495487-88.495488-159.984724-198.721183-159.984724zm1.259722 79.992362c66.450348 0 119.988544 53.538195 119.988544 119.988543v199.980905h-239.977087v-199.980905c0-66.450348 53.538195-119.988543 119.988543-119.988543zm-280.918059 439.957991c-22.045139 0-39.996181 17.951042-39.996181 39.996181 0 22.36007 17.951042 39.996181 39.996181 39.996181h200.925697v-79.992362zm360.910422 0v79.992362h199.036113c22.36007 0 39.996181-17.636111 39.996181-39.996181 0-22.045139-17.636111-39.996181-39.996181-39.996181zm-360.910422 119.988543c-22.045139 0-39.996181 17.951042-39.996181 39.996182 0 22.360069 17.951042 39.996181 39.996181 39.996181h200.925697v-79.992363zm360.910422 0v79.992363h199.036113c22.36007 0 39.996181-17.636112 39.996181-39.996181 0-22.04514-17.636111-39.996182-39.996181-39.996182zm-360.910422 119.988544c-22.045139 0-39.996181 16.061458-39.996181 36.217014v7.873264c0 19.840625 17.951042 35.902084 39.996181 35.902084h559.946535c22.36007 0 39.996181-16.061459 39.996181-35.902084v-7.873264c0-20.155556-17.636111-36.217014-39.996181-36.217014zm0 0" fill="none" stroke="#212121" stroke-linecap="round" stroke-width="11.338583" transform="scale(.0124035)"/></svg>

<?xml version="1.0" encoding="UTF-8"?>
<svg xmlns="http://www.w3.org/2000/svg" xmlns:xlink="http://www.w3.org/1999/xlink" width="24pt" height="24pt" viewBox="0 0 24 24" version="1.1">
<defs>
<radialGradient id="radial0" gradientUnits="userSpaceOnUse" cx="450.90894" cy="189.57936" fx="450.90894" fy="189.57936" r="21.166656" gradientTransform="matrix(0.000000130628,-0.0585994,-0.105479,-0.0000000761539,33.392364,47.696499)">
<stop offset="0" style="stop-color:rgb(0%,0%,0%);stop-opacity:0.313725;"/>
<stop offset="0.222222" style="stop-color:rgb(0%,0%,0%);stop-opacity:0.27451;"/>
<stop offset="1" style="stop-color:rgb(0%,0%,0%);stop-opacity:0;"/>
</radialGradient>
<radialGradient id="radial1" gradientUnits="userSpaceOnUse" cx="450.90894" cy="189.57936" fx="450.90894" fy="189.57936" r="21.166656" gradientTransform="matrix(-0.000000130628,0.0585994,0.105479,0.0000000761539,-9.57759,-5.645611)">
<stop offset="0" style="stop-color:rgb(0%,0%,0%);stop-opacity:0.313725;"/>
<stop offset="0.222222" style="stop-color:rgb(0%,0%,0%);stop-opacity:0.27451;"/>
<stop offset="1" style="stop-color:rgb(0%,0%,0%);stop-opacity:0;"/>
</radialGradient>
<radialGradient id="radial2" gradientUnits="userSpaceOnUse" cx="450.90894" cy="189.57936" fx="450.90894" fy="189.57936" r="21.166656" gradientTransform="matrix(-0.000000130628,-0.0585994,0.105479,-0.0000000761539,-9.57759,47.696499)">
<stop offset="0" style="stop-color:rgb(0%,0%,0%);stop-opacity:0.313725;"/>
<stop offset="0.222222" style="stop-color:rgb(0%,0%,0%);stop-opacity:0.27451;"/>
<stop offset="1" style="stop-color:rgb(0%,0%,0%);stop-opacity:0;"/>
</radialGradient>
<radialGradient id="radial3" gradientUnits="userSpaceOnUse" cx="450.90894" cy="189.57936" fx="450.90894" fy="189.57936" r="21.166656" gradientTransform="matrix(0.000000130628,0.0585994,-0.105479,0.0000000761539,33.392363,-5.645611)">
<stop offset="0" style="stop-color:rgb(0%,0%,0%);stop-opacity:0.313725;"/>
<stop offset="0.222222" style="stop-color:rgb(0%,0%,0%);stop-opacity:0.27451;"/>
<stop offset="1" style="stop-color:rgb(0%,0%,0%);stop-opacity:0;"/>
</radialGradient>
<linearGradient id="linear0" gradientUnits="userSpaceOnUse" x1="255.32306" y1="233.5" x2="255.32304" y2="254.66666" gradientTransform="matrix(0.01002,0,0,0.0468795,9.349039,10.079088)">
<stop offset="0" style="stop-color:rgb(0%,0%,0%);stop-opacity:0.27451;"/>
<stop offset="1" style="stop-color:rgb(0%,0%,0%);stop-opacity:0;"/>
</linearGradient>
<linearGradient id="linear1" gradientUnits="userSpaceOnUse" x1="254" y1="-168.66666" x2="254" y2="233.5" gradientTransform="matrix(1,0,0,1,0,0)">
<stop offset="0" style="stop-color:rgb(50.588235%,78.039216%,51.764706%);stop-opacity:1;"/>
<stop offset="1" style="stop-color:rgb(40%,73.333333%,41.568627%);stop-opacity:1;"/>
</linearGradient>
<linearGradient id="linear2" gradientUnits="userSpaceOnUse" x1="960" y1="1695.1182" x2="960" y2="175.11812" gradientTransform="matrix(0.0124035,0,0,0.0124035,0,0)">
<stop offset="0" style="stop-color:rgb(74.117647%,74.117647%,74.117647%);stop-opacity:1;"/>
<stop offset="1" style="stop-color:rgb(87.843137%,87.843137%,87.843137%);stop-opacity:1;"/>
</linearGradient>
</defs>
<g id="surface1">
<path style=" stroke:none;fill-rule:nonzero;fill:url(#radial0);" d="M 13.644531 21.027344 L 15.628906 21.027344 L 15.628906 20.03125 L 13.644531 20.03125 Z M 13.644531 21.027344 "/>
<path style=" stroke:none;fill-rule:nonzero;fill:url(#radial1);" d="M 10.171875 21.027344 L 8.1875 21.027344 L 8.1875 22.019531 L 10.171875 22.019531 Z M 10.171875 21.027344 "/>
<path style=" stroke:none;fill-rule:nonzero;fill:url(#radial2);" d="M 10.171875 21.027344 L 8.1875 21.027344 L 8.1875 20.03125 L 10.171875 20.03125 Z M 10.171875 21.027344 "/>
<path style=" stroke:none;fill-rule:nonzero;fill:url(#radial3);" d="M 13.644531 21.027344 L 15.628906 21.027344 L 15.628906 22.019531 L 13.644531 22.019531 Z M 13.644531 21.027344 "/>
<path style=" stroke:none;fill-rule:nonzero;fill:url(#linear0);" d="M 10.171875 20.777344 L 13.644531 20.777344 L 13.644531 22.019531 L 10.171875 22.019531 Z M 10.171875 20.777344 "/>
<path style="fill-rule:nonzero;fill:url(#linear1);stroke-width:3;stroke-linecap:round;stroke-linejoin:miter;stroke:rgb(20%,20%,20%);stroke-opacity:1;stroke-miterlimit:4;" d="M 253.975747 -168.671091 C 365.048473 -168.671091 455.123205 -78.679685 455.123205 32.393042 C 455.123205 143.465768 365.048473 233.5405 253.975747 233.5405 C 142.986345 233.5405 52.911614 143.465768 52.911614 32.393042 C 52.911614 -78.679685 142.986345 -168.671091 253.975747 -168.671091 Z M 253.975747 -168.671091 " transform="matrix(0.0468795,0,0,0.0468795,0,10.079087)"/>
<path style=" stroke:none;fill-rule:nonzero;fill:rgb(0%,0%,0%);fill-opacity:0.196078;" d="M 11.90625 21.027344 C 6.683594 21.027344 2.480469 16.820312 2.480469 11.597656 C 2.480469 11.566406 2.480469 11.539062 2.480469 11.507812 C 2.53125 16.6875 6.714844 20.839844 11.90625 20.839844 C 17.097656 20.839844 21.285156 16.6875 21.332031 11.507812 C 21.332031 11.539062 21.335938 11.566406 21.335938 11.597656 C 21.335938 16.820312 17.128906 21.027344 11.90625 21.027344 Z M 11.90625 21.027344 "/>
<path style=" stroke:none;fill-rule:nonzero;fill:rgb(100%,100%,100%);fill-opacity:0.392157;" d="M 11.90625 2.171875 C 6.683594 2.171875 2.480469 6.375 2.480469 11.597656 C 2.480469 11.628906 2.480469 11.660156 2.480469 11.691406 C 2.53125 6.511719 6.714844 2.355469 11.90625 2.355469 C 17.097656 2.355469 21.285156 6.511719 21.332031 11.691406 C 21.332031 11.660156 21.335938 11.628906 21.335938 11.597656 C 21.335938 6.375 17.128906 2.171875 11.90625 2.171875 Z M 11.90625 2.171875 "/>
<path style=" stroke:none;fill-rule:nonzero;fill:rgb(12.941176%,12.941176%,12.941176%);fill-opacity:1;" d="M 11.90625 2.101562 C 6.648438 2.101562 2.410156 6.339844 2.410156 11.597656 C 2.410156 16.859375 6.648438 21.097656 11.90625 21.097656 C 17.167969 21.097656 21.40625 16.859375 21.40625 11.597656 C 21.40625 6.339844 17.167969 2.101562 11.90625 2.101562 Z M 11.90625 2.242188 C 17.09375 2.242188 21.265625 6.414062 21.265625 11.597656 C 21.265625 16.785156 17.09375 20.957031 11.90625 20.957031 C 6.722656 20.957031 2.550781 16.785156 2.550781 11.597656 C 2.550781 6.414062 6.722656 2.242188 11.90625 2.242188 Z M 11.90625 2.242188 "/>
<path style=" stroke:none;fill-rule:nonzero;fill:url(#linear2);" d="M 11.890625 5.644531 C 10.527344 5.644531 9.425781 6.53125 9.425781 7.628906 L 9.425781 10.605469 L 8.421875 10.605469 C 8.148438 10.605469 7.925781 10.804688 7.925781 11.054688 L 7.925781 11.152344 C 7.925781 11.398438 8.148438 11.597656 8.421875 11.597656 L 15.367188 11.597656 C 15.644531 11.597656 15.863281 11.398438 15.863281 11.152344 L 15.863281 11.054688 C 15.863281 10.804688 15.644531 10.605469 15.367188 10.605469 L 14.386719 10.605469 L 14.386719 7.628906 C 14.386719 6.53125 13.289062 5.644531 11.921875 5.644531 Z M 11.90625 6.636719 C 12.730469 6.636719 13.394531 7.300781 13.394531 8.125 L 13.394531 10.605469 L 10.417969 10.605469 L 10.417969 8.125 C 10.417969 7.300781 11.082031 6.636719 11.90625 6.636719 Z M 8.421875 12.09375 C 8.148438 12.09375 7.925781 12.316406 7.925781 12.589844 C 7.925781 12.867188 8.148438 13.085938 8.421875 13.085938 L 10.914062 13.085938 L 10.914062 12.09375 Z M 12.898438 12.09375 L 12.898438 13.085938 L 15.367188 13.085938 C 15.644531 13.085938 15.863281 12.867188 15.863281 12.589844 C 15.863281 12.316406 15.644531 12.09375 15.367188 12.09375 Z M 8.421875 13.582031 C 8.148438 13.582031 7.925781 13.804688 7.925781 14.078125 C 7.925781 14.355469 8.148438 14.574219 8.421875 14.574219 L 10.914062 14.574219 L 10.914062 13.582031 Z M 12.898438 13.582031 L 12.898438 14.574219 L 15.367188 14.574219 C 15.644531 14.574219 15.863281 14.355469 15.863281 14.078125 C 15.863281 13.804688 15.644531 13.582031 15.367188 13.582031 Z M 8.421875 15.070312 C 8.148438 15.070312 7.925781 15.269531 7.925781 15.519531 L 7.925781 15.617188 C 7.925781 15.863281 8.148438 16.0625 8.421875 16.0625 L 15.367188 16.0625 C 15.644531 16.0625 15.863281 15.863281 15.863281 15.617188 L 15.863281 15.519531 C 15.863281 15.269531 15.644531 15.070312 15.367188 15.070312 Z M 8.421875 15.070312 "/>
<path style=" stroke:none;fill-rule:nonzero;fill:rgb(100%,100%,100%);fill-opacity:0.392157;" d="M 11.890625 5.644531 C 10.527344 5.644531 9.425781 6.53125 9.425781 7.628906 L 9.425781 8 C 9.425781 6.902344 10.527344 6.015625 11.890625 6.015625 L 11.921875 6.015625 C 13.289062 6.015625 14.386719 6.902344 14.386719 8 L 14.386719 7.628906 C 14.386719 6.53125 13.289062 5.644531 11.921875 5.644531 Z M 8.421875 10.605469 C 8.148438 10.605469 7.925781 10.804688 7.925781 11.054688 L 7.925781 11.152344 C 7.925781 11.199219 7.933594 11.246094 7.949219 11.289062 C 8.015625 11.109375 8.199219 10.980469 8.421875 10.980469 L 9.425781 10.980469 L 9.425781 10.605469 Z M 10.417969 10.605469 L 10.417969 10.980469 L 13.394531 10.980469 L 13.394531 10.605469 Z M 14.386719 10.605469 L 14.386719 10.980469 L 15.367188 10.980469 C 15.589844 10.980469 15.777344 11.109375 15.839844 11.289062 C 15.855469 11.246094 15.863281 11.199219 15.863281 11.152344 L 15.863281 11.054688 C 15.863281 10.804688 15.644531 10.605469 15.367188 10.605469 Z M 8.421875 12.09375 C 8.148438 12.09375 7.925781 12.316406 7.925781 12.589844 C 7.925781 12.65625 7.941406 12.71875 7.960938 12.777344 C 8.035156 12.59375 8.214844 12.46875 8.421875 12.46875 L 10.914062 12.46875 L 10.914062 12.09375 Z M 12.898438 12.09375 L 12.898438 12.46875 L 15.367188 12.46875 C 15.578125 12.46875 15.753906 12.59375 15.828125 12.777344 C 15.851562 12.71875 15.863281 12.65625 15.863281 12.589844 C 15.863281 12.316406 15.644531 12.09375 15.367188 12.09375 Z M 8.421875 13.582031 C 8.148438 13.582031 7.925781 13.804688 7.925781 14.078125 C 7.925781 14.144531 7.941406 14.207031 7.960938 14.265625 C 8.035156 14.082031 8.214844 13.957031 8.421875 13.957031 L 10.914062 13.957031 L 10.914062 13.582031 Z M 12.898438 13.582031 L 12.898438 13.957031 L 15.367188 13.957031 C 15.578125 13.957031 15.753906 14.082031 15.828125 14.265625 C 15.851562 14.207031 15.863281 14.144531 15.863281 14.078125 C 15.863281 13.804688 15.644531 13.582031 15.367188 13.582031 Z M 8.421875 15.070312 C 8.148438 15.070312 7.925781 15.269531 7.925781 15.519531 L 7.925781 15.617188 C 7.925781 15.664062 7.933594 15.710938 7.949219 15.753906 C 8.015625 15.574219 8.199219 15.445312 8.421875 15.445312 L 15.367188 15.445312 C 15.589844 15.445312 15.777344 15.574219 15.839844 15.753906 C 15.855469 15.710938 15.863281 15.664062 15.863281 15.617188 L 15.863281 15.519531 C 15.863281 15.269531 15.644531 15.070312 15.367188 15.070312 Z M 8.421875 15.070312 "/>
<path style=" stroke:none;fill-rule:nonzero;fill:rgb(0%,0%,0%);fill-opacity:0.235294;" d="M 11.90625 6.636719 C 11.082031 6.636719 10.417969 7.300781 10.417969 8.125 L 10.417969 8.621094 C 10.417969 7.796875 11.082031 7.132812 11.90625 7.132812 C 12.730469 7.132812 13.394531 7.796875 13.394531 8.621094 L 13.394531 8.125 C 13.394531 7.300781 12.730469 6.636719 11.90625 6.636719 Z M 7.976562 11.351562 C 7.945312 11.410156 7.925781 11.476562 7.925781 11.550781 L 7.925781 11.648438 C 7.925781 11.894531 8.148438 12.09375 8.421875 12.09375 L 15.367188 12.09375 C 15.644531 12.09375 15.863281 11.894531 15.863281 11.648438 L 15.863281 11.550781 C 15.863281 11.476562 15.847656 11.410156 15.8125 11.351562 C 15.734375 11.496094 15.5625 11.597656 15.367188 11.597656 L 8.421875 11.597656 C 8.226562 11.597656 8.058594 11.496094 7.976562 11.351562 Z M 7.992188 12.839844 C 7.949219 12.910156 7.925781 12.996094 7.925781 13.085938 C 7.925781 13.363281 8.148438 13.582031 8.421875 13.582031 L 10.914062 13.582031 L 10.914062 13.085938 L 8.421875 13.085938 C 8.238281 13.085938 8.078125 12.988281 7.992188 12.839844 Z M 15.800781 12.839844 C 15.714844 12.988281 15.554688 13.085938 15.367188 13.085938 L 12.898438 13.085938 L 12.898438 13.582031 L 15.367188 13.582031 C 15.644531 13.582031 15.863281 13.363281 15.863281 13.085938 C 15.863281 12.996094 15.839844 12.910156 15.800781 12.839844 Z M 7.992188 14.328125 C 7.949219 14.402344 7.925781 14.484375 7.925781 14.574219 C 7.925781 14.851562 8.148438 15.070312 8.421875 15.070312 L 10.914062 15.070312 L 10.914062 14.574219 L 8.421875 14.574219 C 8.238281 14.574219 8.078125 14.476562 7.992188 14.328125 Z M 15.800781 14.328125 C 15.714844 14.476562 15.554688 14.574219 15.367188 14.574219 L 12.898438 14.574219 L 12.898438 15.070312 L 15.367188 15.070312 C 15.644531 15.070312 15.863281 14.851562 15.863281 14.574219 C 15.863281 14.484375 15.839844 14.402344 15.800781 14.328125 Z M 7.976562 15.816406 C 7.945312 15.875 7.925781 15.945312 7.925781 16.015625 L 7.925781 16.113281 C 7.925781 16.359375 8.148438 16.558594 8.421875 16.558594 L 15.367188 16.558594 C 15.644531 16.558594 15.863281 16.359375 15.863281 16.113281 L 15.863281 16.015625 C 15.863281 15.945312 15.847656 15.875 15.8125 15.816406 C 15.734375 15.964844 15.5625 16.0625 15.367188 16.0625 L 8.421875 16.0625 C 8.226562 16.0625 8.058594 15.964844 7.976562 15.816406 Z M 7.976562 15.816406 "/>
<path style="fill:none;stroke-width:11.338583;stroke-linecap:round;stroke-linejoin:miter;stroke:rgb(12.941176%,12.941176%,12.941176%);stroke-opacity:1;stroke-miterlimit:4;" d="M 958.648623 455.074659 C 848.737858 455.074659 759.92744 526.563896 759.92744 615.059383 L 759.92744 855.036469 L 678.990286 855.036469 C 656.945147 855.036469 638.994105 871.097928 638.994105 891.253483 L 638.994105 899.126747 C 638.994105 918.967373 656.945147 935.028831 678.990286 935.028831 L 1238.936821 935.028831 C 1261.296891 935.028831 1278.933002 918.967373 1278.933002 899.126747 L 1278.933002 891.253483 C 1278.933002 871.097928 1261.296891 855.036469 1238.936821 855.036469 L 1159.889251 855.036469 L 1159.889251 615.059383 C 1159.889251 526.563896 1071.393763 455.074659 961.168068 455.074659 Z M 959.908345 535.067021 C 1026.358693 535.067021 1079.896889 588.605216 1079.896889 655.055564 L 1079.896889 855.036469 L 839.919802 855.036469 L 839.919802 655.055564 C 839.919802 588.605216 893.457997 535.067021 959.908345 535.067021 Z M 678.990286 975.025012 C 656.945147 975.025012 638.994105 992.976054 638.994105 1015.021193 C 638.994105 1037.381263 656.945147 1055.017374 678.990286 1055.017374 L 879.915983 1055.017374 L 879.915983 975.025012 Z M 1039.900708 975.025012 L 1039.900708 1055.017374 L 1238.936821 1055.017374 C 1261.296891 1055.017374 1278.933002 1037.381263 1278.933002 1015.021193 C 1278.933002 992.976054 1261.296891 975.025012 1238.936821 975.025012 Z M 678.990286 1095.013555 C 656.945147 1095.013555 638.994105 1112.964597 638.994105 1135.009737 C 638.994105 1157.369806 656.945147 1175.005918 678.990286 1175.005918 L 879.915983 1175.005918 L 879.915983 1095.013555 Z M 1039.900708 1095.013555 L 1039.900708 1175.005918 L 1238.936821 1175.005918 C 1261.296891 1175.005918 1278.933002 1157.369806 1278.933002 1135.009737 C 1278.933002 1112.964597 1261.296891 1095.013555 1238.936821 1095.013555 Z M 678.990286 1215.002099 C 656.945147 1215.002099 638.994105 1231.063557 638.994105 1251.219113 L 638.994105 1259.092377 C 638.994105 1278.933002 656.945147 1294.994461 678.990286 1294.994461 L 1238.936821 1294.994461 C 1261.296891 1294.994461 1278.933002 1278.933002 1278.933002 1259.092377 L 1278.933002 1251.219113 C 1278.933002 1231.063557 1261.296891 1215.002099 1238.936821 1215.002099 Z M 678.990286 1215.002099 " transform="matrix(0.0124035,0,0,0.0124035,0,0)"/>
</g>
</svg>
